X:18
T:11c. Rolling Jig, The
R:double jig
C:Larry Mallette
M:6/8
Q:320
L:1/8
P:double jig
K:G
"Double Jig"
DF/E/D GED|BGD ABc|B2B dBG|AGF GFE|
DF/E/D GED|ABc d2e|dBG ABA|1~G3GFE:|2~G3 GBd||
c2e dBG|ABA E2F|GFG ABc|ded g2f|
ege dBG|ABA d2e|dBG ABA|1~G3GBd:|2~G3 GFE|]





